X:22
T:Scottiche
C:trad
M:2/2
L:1/4
Q:1/4=190
K:G
Bcd e/2f/2|gB d2|e/2d/2c/2B/2 A A/2B/2|c/2d/2e/2f/2 ed| 
Bcd e/2f/2|gB d2|e/2d/2c/2B/2 A/2B/2c/2A/2|G B G2:| 
|:gg f>f|eed2|e/2d/2c/2B/2 A A/2B/2|c/2d/2e/2f/2 ed|
gg f>f|eed2|e/2d/2c/2B/2 A/2B/2c/2A/2|G B G2:|
